!!!COM: Clara Schumann
!!!CNT: Deutsch
!!!TXO: Deutsch
!!!OTL: "Volkslied"
!!!LYR: Heine, Heinrich
!!!OPS: Op. 
!!!ONM: No. 
!!!ENC: Leigh VanHandel
!!!YOR: Clara Schumann: Seven Songs. Kristin Norderval, Editor
!!!YOR: Hildegard Publishing Company
!!!ODT: 1840/
!!NB: Vocal melody and text encoded.
**kern	**silbe
*staff1	*
=1-	=1
*clefG2	*
*k[b-e-a-d-]	*
*M9/8	*
*MM[Adagio]	*
4.r	.
4.r	.
4.r	.
=2	=2
4.r	.
4.r	.
4.r	.
=3	=3
4.r	.
4.r	.
4r	.
{8c	{Es
=4	=4
4c	fiel
8c	ein
8f	Reif
8f	in
8f	der
4g	Fru2h-
8g	-lings-
=5	=5
[2.cc	nacht,
4cc]}	|}
{8a-	{er
=6	=6
8cc	fiel
8a-	auf
8f	die
8e-	zar-
8e-	-ten
8f	Blau-
4a-	-blu2-
8g	-me-
=7	=7
4.b-}	-lein:}
4.r	.
4.r	.
=8	=8
4r	.
{8c	{sie
4c	sind
8c	ver-
8d-	-wel-
8c	-ket,
16r	.
16g	ver-
=9	=9
4.a-	-dor-
8g}	-ret.}
8r	.
8r	.
4r	.
{8e-	{Ein
=10	=10
4e-	Ju2ng-
8e-	-ling
8a-	hat-
8g	-te
8f	ein
4e-	Ma2d-
8e-	-chen
=11	=11
4.cc}	lieb;}
4.r	.
4r	.
{8e-	{sie
=12	=12
4a-	floh-
8a-	-en
8dd-	heim-
8cc	-lich
8b-	vom
4a-	hau-
8a-	-se
=13	=13
[2.ff	fort,
4ff]	|
8ff	es
=14	=14
8ff	wusst'
8ff	we-
8ff	-der
4.ee-	Va-
4dd-	-ter
8cc	noch
=15	=15
8b-	Mut-
8a-}	-ter.}
8r	.
4.r	.
4.r	.
=16	=16
4.r	.
4.r	.
4.r	.
=17	=17
4.r	.
4.r	.
4.r	.
=18	=18
4.r	.
4.r	.
4r	.
{8c	{Sie
=19	=19
4c	sind
8c	ge-
4f	-wand-
8f	-dert
4g	hin
8g	und
=20	=20
4cc}	her,}
8r	.
4.r	.
4.r	.
=21	=21
8r	.
8r	.
{8f	{sie
8a-	ha-
8a-	-ben
8g	ge-
8b-	-habt
8b-	we-
8a-	-der
=22	=22
4dd-	Glu2ck
8cc	noch
4.b-}	Stern,}
4.r	.
=23	=23
4.r	.
4r	.
{8a-	{sid
4a-	sind
8a-	ge-
=24	=24
4a-	-stor-
8e-}	-ben,}
4.r	.
4r	.
{8d-	{ver-
=25	=25
[2.c	-dor-
4.c]	|
=26	=26
2.c}	-ben.}
4.r	.
==	==
*-	*-
